!!!SOCIAL_FUNCTION:	songs with contest of medicine after potlatch
!!!PDT:	1939
!!!OTL: No__23_Song_of_Santiano_at_a_Potlatch.krn
!!!LANG: Non-Tone
!!!LING_GROUP: Wakashan
!!!REG: Pacific Northwest
**kern
*staff1
=1-
*clefF4
*k[b-e-]
*M2/4
8.B-\L
16A\Jk
4B-\
=2
16B-\LK
[8.A\J
4A\_
=3
2A\]
=4
4B-\
12B-\L
12A\
12G\J
=5
4B-\
4r
=6
8.B-\L
16G\Jk
4B-\
=7
16B-\LK
8.G\J
4G\
=8
8E-\
8r
8D\
8r
=9
8G\
8r
8.G\L
16E-\Jk
=10
[2E-\
=11
2E-\]
=12
4F\
12F\L
12E-\
12D\J
=13
8D\L
8D\J
4D\
=14
4BB-/
4r
=15
4D;\
8D\L
8F\J
=16
8D\
8r
8D\
8r
=17
8D\
8r
8D\
8r
=18
2BB-/
=19
4D\
8D\L
8F\J
=20
8D\
8r
8D\
8r
=21
8D\
8r
8D\
8r
=22
2BB-/
==
*-
